src/assets/svg/svgSettings.svg

<?xml version="1.0" encoding="UTF-8" standalone="no"?>
<!DOCTYPE svg PUBLIC "-//W3C//DTD SVG 1.1//EN" "http://www.w3.org/Graphics/SVG/1.1/DTD/svg11.dtd">
<svg width="100%" height="100%" viewBox="0 0 512 512" version="1.1" xmlns="http://www.w3.org/2000/svg" xmlns:xlink="http://www.w3.org/1999/xlink" xml:space="preserve" xmlns:serif="http://www.serif.com/" style="fill-rule:evenodd;clip-rule:evenodd;">
    <g transform="matrix(5.89655,0,0,5.89655,-6357.79,-137.835)">
        <path d="M1092.93,78.51C1093.44,78.592 1093.89,78.906 1094.14,79.36L1097.93,86.12C1098.41,86.972 1098.32,88.038 1097.69,88.79C1096.82,89.84 1095.87,90.72 1095.37,92.02C1092.78,98.66 1100.19,102.42 1105.52,104.81C1108.24,106.02 1111.38,105.91 1113.58,103.82C1114.87,102.59 1115.36,100.76 1115.94,99.14C1116.26,98.242 1117.12,97.639 1118.07,97.64L1125.91,97.66C1126.82,97.66 1127.45,98.087 1127.78,98.94C1128.11,99.78 1128.41,100.617 1128.7,101.45C1129.88,104.87 1133.51,106.25 1136.82,105.26C1141.46,103.88 1152.61,98.2 1148.06,91.25C1147.46,90.343 1146.78,89.497 1146.03,88.71C1145.38,88.039 1145.25,87.006 1145.73,86.2L1149.77,79.3C1150.2,78.57 1151.05,78.188 1151.89,78.35C1152.8,78.53 1153.71,78.67 1154.64,78.77C1162.96,79.71 1162.56,69.61 1162.15,64.46C1161.66,58.327 1158.36,55.967 1152.25,57.38C1150.9,57.69 1149.89,56.82 1149.29,55.72C1148.1,53.547 1146.89,51.463 1145.68,49.47C1145.3,48.849 1145.34,48.055 1145.77,47.47C1146.39,46.65 1147.01,45.86 1147.63,45.1C1149.79,42.46 1149.36,38.66 1147,36.39C1142.7,32.26 1130.56,25.1 1128.13,36.13C1127.9,37.158 1127.03,37.926 1125.99,38.02C1123.71,38.227 1121.23,38.27 1118.56,38.15C1117.03,38.077 1116.08,37.353 1115.69,35.98C1113.79,29.22 1108.39,29.18 1103.25,31.97C1098.82,34.37 1093.31,37.37 1095.22,43.44C1095.69,44.93 1096.93,45.98 1097.83,47.24C1098.34,47.954 1098.38,48.911 1097.92,49.67C1096.72,51.683 1095.63,53.633 1094.65,55.52C1093.95,56.87 1093.05,57.68 1091.54,57.37C1085.35,56.077 1082.03,58.48 1081.6,64.58C1081.23,69.65 1080.76,77.37 1087.06,78.67C1089.08,79.09 1090.92,78.18 1092.93,78.51" style="fill:none;fill-rule:nonzero;stroke:black;stroke-width:2px;"/>
        <path d="M1137.52,67.87C1137.52,59.307 1130.47,52.26 1121.91,52.26C1113.35,52.26 1106.3,59.307 1106.3,67.87C1106.3,76.433 1113.35,83.48 1121.91,83.48C1130.47,83.48 1137.52,76.433 1137.52,67.87" style="fill:none;fill-rule:nonzero;stroke:black;stroke-width:2px;"/>
        <path d="M1092.93,78.51C1090.92,78.18 1089.08,79.09 1087.06,78.67C1080.76,77.37 1081.23,69.65 1081.6,64.58C1082.03,58.48 1085.35,56.077 1091.54,57.37C1093.05,57.68 1093.95,56.87 1094.65,55.52C1095.63,53.633 1096.72,51.683 1097.92,49.67C1098.38,48.911 1098.34,47.954 1097.83,47.24C1096.93,45.98 1095.69,44.93 1095.22,43.44C1093.31,37.37 1098.82,34.37 1103.25,31.97C1108.39,29.18 1113.79,29.22 1115.69,35.98C1116.08,37.353 1117.03,38.077 1118.56,38.15C1121.23,38.27 1123.71,38.227 1125.99,38.02C1127.03,37.926 1127.9,37.158 1128.13,36.13C1130.56,25.1 1142.7,32.26 1147,36.39C1149.36,38.66 1149.79,42.46 1147.63,45.1C1147.01,45.86 1146.39,46.65 1145.77,47.47C1145.34,48.055 1145.3,48.849 1145.68,49.47C1146.89,51.463 1148.1,53.547 1149.29,55.72C1149.89,56.82 1150.9,57.69 1152.25,57.38C1158.36,55.967 1161.66,58.327 1162.15,64.46C1162.56,69.61 1162.96,79.71 1154.64,78.77C1153.71,78.67 1152.8,78.53 1151.89,78.35C1151.05,78.188 1150.2,78.57 1149.77,79.3L1145.73,86.2C1145.25,87.006 1145.38,88.039 1146.03,88.71C1146.78,89.497 1147.46,90.343 1148.06,91.25C1152.61,98.2 1141.46,103.88 1136.82,105.26C1133.51,106.25 1129.88,104.87 1128.7,101.45C1128.41,100.617 1128.11,99.78 1127.78,98.94C1127.45,98.087 1126.82,97.66 1125.91,97.66L1118.07,97.64C1117.12,97.639 1116.26,98.242 1115.94,99.14C1115.36,100.76 1114.87,102.59 1113.58,103.82C1111.38,105.91 1108.24,106.02 1105.52,104.81C1100.19,102.42 1092.78,98.66 1095.37,92.02C1095.87,90.72 1096.82,89.84 1097.69,88.79C1098.32,88.038 1098.41,86.972 1097.93,86.12L1094.14,79.36C1093.89,78.906 1093.44,78.592 1092.93,78.51ZM1137.52,67.87C1137.52,59.307 1130.47,52.26 1121.91,52.26C1113.35,52.26 1106.3,59.307 1106.3,67.87C1106.3,76.433 1113.35,83.48 1121.91,83.48C1130.47,83.48 1137.52,76.433 1137.52,67.87Z" style="fill-rule:nonzero;stroke:black;stroke-width:0.17px;stroke-linejoin:round;stroke-miterlimit:2;"/>
    </g>
</svg>

<svg xmlns="http://www.w3.org/2000/svg" xml:space="preserve" style="fill-rule:evenodd;clip-rule:evenodd" viewBox="0 0 512 512"><path d="M1092.93 78.51c.51.082.96.396 1.21.85l3.79 6.76c.48.852.39 1.918-.24 2.67-.87 1.05-1.82 1.93-2.32 3.23-2.59 6.64 4.82 10.4 10.15 12.79 2.72 1.21 5.86 1.1 8.06-.99 1.29-1.23 1.78-3.06 2.36-4.68a2.27 2.27 0 0 1 2.13-1.5l7.84.02c.91 0 1.54.427 1.87 1.28.33.84.63 1.677.92 2.51 1.18 3.42 4.81 4.8 8.12 3.81 4.64-1.38 15.79-7.06 11.24-14.01-.6-.907-1.28-1.753-2.03-2.54a2.085 2.085 0 0 1-.3-2.51l4.04-6.9a2.02 2.02 0 0 1 2.12-.95c.91.18 1.82.32 2.75.42 8.32.94 7.92-9.16 7.51-14.31q-.735-9.2-9.9-7.08c-1.35.31-2.36-.56-2.96-1.66-1.19-2.173-2.4-4.257-3.61-6.25a1.8 1.8 0 0 1 .09-2q.93-1.23 1.86-2.37c2.16-2.64 1.73-6.44-.63-8.71-4.3-4.13-16.44-11.29-18.87-.26a2.43 2.43 0 0 1-2.14 1.89c-2.28.207-4.76.25-7.43.13-1.53-.073-2.48-.797-2.87-2.17-1.9-6.76-7.3-6.8-12.44-4.01-4.43 2.4-9.94 5.4-8.03 11.47.47 1.49 1.71 2.54 2.61 3.8.51.714.55 1.671.09 2.43q-1.8 3.02-3.27 5.85c-.7 1.35-1.6 2.16-3.11 1.85-6.19-1.293-9.51 1.11-9.94 7.21-.37 5.07-.84 12.79 5.46 14.09 2.02.42 3.86-.49 5.87-.16" style="fill:none;fill-rule:nonzero;stroke:#000;stroke-width:2px" transform="translate(-6357.79 -137.835)scale(5.89655)"/><path d="M1137.52 67.87c0-8.563-7.05-15.61-15.61-15.61s-15.61 7.047-15.61 15.61 7.05 15.61 15.61 15.61 15.61-7.047 15.61-15.61" style="fill:none;fill-rule:nonzero;stroke:#000;stroke-width:2px" transform="translate(-6357.79 -137.835)scale(5.89655)"/><path d="M1092.93 78.51c-2.01-.33-3.85.58-5.87.16-6.3-1.3-5.83-9.02-5.46-14.09.43-6.1 3.75-8.503 9.94-7.21 1.51.31 2.41-.5 3.11-1.85q1.47-2.83 3.27-5.85c.46-.759.42-1.716-.09-2.43-.9-1.26-2.14-2.31-2.61-3.8-1.91-6.07 3.6-9.07 8.03-11.47 5.14-2.79 10.54-2.75 12.44 4.01.39 1.373 1.34 2.097 2.87 2.17 2.67.12 5.15.077 7.43-.13a2.43 2.43 0 0 0 2.14-1.89c2.43-11.03 14.57-3.87 18.87.26 2.36 2.27 2.79 6.07.63 8.71q-.93 1.14-1.86 2.37a1.8 1.8 0 0 0-.09 2c1.21 1.993 2.42 4.077 3.61 6.25.6 1.1 1.61 1.97 2.96 1.66q9.165-2.12 9.9 7.08c.41 5.15.81 15.25-7.51 14.31-.93-.1-1.84-.24-2.75-.42-.84-.162-1.69.22-2.12.95l-4.04 6.9c-.48.806-.35 1.839.3 2.51.75.787 1.43 1.633 2.03 2.54 4.55 6.95-6.6 12.63-11.24 14.01-3.31.99-6.94-.39-8.12-3.81a68 68 0 0 0-.92-2.51c-.33-.853-.96-1.28-1.87-1.28l-7.84-.02a2.27 2.27 0 0 0-2.13 1.5c-.58 1.62-1.07 3.45-2.36 4.68-2.2 2.09-5.34 2.2-8.06.99-5.33-2.39-12.74-6.15-10.15-12.79.5-1.3 1.45-2.18 2.32-3.23.63-.752.72-1.818.24-2.67l-3.79-6.76c-.25-.454-.7-.768-1.21-.85Zm44.59-10.64c0-8.563-7.05-15.61-15.61-15.61s-15.61 7.047-15.61 15.61 7.05 15.61 15.61 15.61 15.61-7.047 15.61-15.61Z" style="fill-rule:nonzero;stroke:#000;stroke-width:.17px;stroke-linejoin:round;stroke-miterlimit:2" transform="translate(-6357.79 -137.835)scale(5.89655)"/></svg>
